X: 11343
T: Earl Gray
R: strathspey
M: 4/4
K: Amajor
A>B A>E F<A E>c|d>B (3cBA G<B (3BcB|
A>B A>E F<A E>c|1 (3def (3efg (3aed (3cdB:|2 (3def (3efg a<A a>g||
a>A g>A f>A e>c|d>B (3cBA G<B B>g|a>A g>A f>A e>c|
(3def (3efg a<A a>g|(3afa (3geg (3fdf (3ece|d>B (3cBA G<B (3BcB|
A>B A>E F<A E>c|(3def (3efg (3aed (3cdB||

